X: 1
T: Woodchopper's Reel
C: New England, Canadian
R: reel
S: Roaring Jelly collection
Z: Transcribed to abc by Mary Lou Knack
M: C|
L: 1/8
K: D
|:\
"D"afdB AdFA | DFAd f2ef | "A7"g{f}ecB Ace^g | a^gab a2f=g |
"D"afdB AdFA | DFAd f2ef | "A7"g{f}ecB Acec | "D"df"(A7)"ec "D"d4 :|
|:\
"D"DFAd (3BdB AF | DFAd (3BdB Az | "A7"A,CEA ceaf | gfed cBAF |
"D"DFAd (3BdB AF | DFAd (3BdB Az | "A7"A,CEA ceaf | g{f}ecA "D"d4 :|
